icon-themes/breeze_svg/cmd/lc_autooutline.svg

<svg viewBox="0 0 24 24" xmlns="http://www.w3.org/2000/svg"><path d="m13.125 8-9.125 9.125 2.875 2.875 9.125-9.125zm0 1.4375 1.4375 1.4375-2.78125 2.78125-1.4375-1.4375z" fill="#1d99f3"/><path d="m14 3v4.4609375l1 1v-.4609375h4v3h-1.710938l-1 1h2.710938v3h-4v-1.710938l-1 1v.710938 1 4h6v-4-1-4-4-4zm1 1h4v3h-4zm0 12h4v3h-4z" fill="#4d4d4d"/></svg>

<svg viewBox="0 0 24 24" xmlns="http://www.w3.org/2000/svg">
  <path
     style="fill:#1d99f3"
     d="M 13.125,8 4,17.125 6.875,20 16,10.875 Z m 0,1.4375 1.4375,1.4375 -2.78125,2.78125 -1.4375,-1.4375 z"
     />
  <path
     style="fill:#4d4d4d"
     d="M 14 3 L 14 7.4609375 L 15 8.4609375 L 15 8 L 19 8 L 19 11 L 17.289062 11 L 16.289062 12 L 19 12 L 19 15 L 15 15 L 15 13.289062 L 14 14.289062 L 14 15 L 14 16 L 14 20 L 20 20 L 20 16 L 20 15 L 20 11 L 20 7 L 20 3 L 14 3 z M 15 4 L 19 4 L 19 7 L 15 7 L 15 4 z M 15 16 L 19 16 L 19 19 L 15 19 L 15 16 z "
     />
</svg>
